X:1
T:All for Me (Miles)
T:All for Me (Miles)
T:Charles Austin Miles
T:Charles Austin Miles, 1901
T:Public Domain Courtesy of the Cyber Hymnal™
C:Charles Austin Miles
Z:Public Domain
Z:Courtesy of the Cyber Hymnal™
%%score ( 1 2 ) ( 3 4 )
L:1/8
Q:1/4=90
M:6/8
K:Ab
V:1 treble 
V:2 treble 
V:3 bass 
V:4 bass 
V:1
"^Solo" [Ec]>[=D=B][Ec] [CA][A,C][_B,_D] | [CE][CA][CB] [DG]3 | [Gd]>[Gc][Gd] [GB][EA][EB] | %3
w: 1.~Wea- ry and wan- dering and|sunk- en in sin,|Vile as a sin- ner could|
w: 2.~Foot- sore and wea- ry He|toiled on the way,|Ev- en to Geth- sem- a-|
w: 3.~Still I re- ject- ed your|Sav- ior and mine,|Till I be- held on the|
 [Ec]6 | [=Ec]>[E=B][Ec] [EG][E^F][EG] | [FB][FA][DF] [DA]3 | [CE][CA][Ec] [EB]2 [=DB] | [EB]6 | %8
w: be,|Je- sus be- held and to|Beth- le- hem came,|Left His bright throne for|me,|
w: ne;|Oft I have met Him and|heard His sweet voice,|Pray- ing for me, for|me,|
w: tree,|Suf- fer- ing, dy- ing, my|Sav- ior and yours,|Dy- ing for you and|me,|
 [Ec][=D=B][Ec] [_D_B]2 [CA] | A6 ||"^Refrain" [Fd]2 [Fd] d3 | [Ec]2 [Ec] [Ec]3 | %12
w: Left His bright throne for|me.|||
w: Pray- ing for me, for|me.|All for me,|all for me?|
w: Dy- ing for you and|me.|||
 [GB][^F=A][GB] [Ge]2 [Gd] | [Ac]3- [Ac]2 [A,C]/[B,D]/ x | [CE][=B,=D][CE] [CA][_D_B][Ec] | %15
w: |||
w: Lord, was it all for|me? * From the|throne to the man- ger, From|
w: |||
 [DF]>[D=E][DF] [=B,A]3 | [CE][EA][EA] ([DG][EA])[DB] | [CA]6 |] %18
w: |||
w: there to the cross,|Yes, it was all * for|me.|
w: |||
V:2
 x6 | x6 | x6 | x6 | x6 | x6 | x6 | x6 | x6 | (C2 D C3) || x3 (FGF) | x6 | x6 | x7 | x6 | x6 | x6 | %17
 x6 |] %18
V:3
 [A,,A,]>[A,,A,][A,,A,] [A,,A,][A,,E,][A,,E,] | [A,,A,][A,,A,][A,,A,] [E,B,]3 | %2
 [E,B,]>[E,=A,][E,B,] [E,D][E,C][E,G,] | A,6 | [C,G,]>[C,G,][C,G,] [C,C][C,C][C,C] | %5
 [D,A,][D,A,][D,A,] [D,F,]3 | [A,,A,][A,,A,][A,,A,] [E,G,]2 [B,,A,] | [E,G,]6 | %8
 [A,,A,][A,,A,][A,,A,] [E,G,]2 [A,,A,] | ([A,,A,]2 [A,,F,] [A,,E,]3) || [D,A,]2 [D,A,] [D,A,]3 | %11
 A,2 [E,A,] A,3 | [E,E][E,E][E,E] [E,B,]2 [E,E] | E3- E, [A,,E]2 [A,,A,]/[A,,A,]/ | %14
 [A,,A,][A,,A,][A,,A,] [A,,A,][A,,A,][A,,A,] | [D,A,]>[D,A,][D,A,] [=D,A,]3 | %16
 [E,A,][E,C][E,C] (B,C)[E,G,] | [A,,A,]6 |] %18
V:4
 x6 | x6 | x6 | A,6 | x6 | x6 | x6 | x6 | x6 | x6 || x6 | (A,,C,) A,3 x | x6 | A,C, x5 | x6 | x6 | %16
 x3 E,2 x | x6 |] %18

